icons/1_Primary/USAA.svg

<svg width="1024" height="1024" viewBox="0 0 1024 1024" fill="none" xmlns="http://www.w3.org/2000/svg">
<g clip-path="url(#clip0_2_3819)">
<path d="M512 1024C794.77 1024 1024 794.77 1024 512C1024 229.23 794.77 0 512 0C229.23 0 0 229.23 0 512C0 794.77 229.23 1024 512 1024Z" fill="#54688C"/>
<path d="M491 244C480.4 244 477.86 253.81 477.86 253.81L450 364.52L335.84 299.06C335.84 299.06 323.49 290.69 310.61 290.69C297.73 290.69 287 299.38 287 299.38L288.23 341.73C288.23 341.73 297.75 334.05 310.64 334.05C323.53 334.05 335.87 342.44 335.87 342.44L476.26 422.92L508 287.39L519.82 337.32L681.36 429.94C681.36 429.94 694.06 438.28 706.54 438.28C719.02 438.28 730.21 429.56 730.21 429.56L729 387.25C729 387.25 718.87 394.93 706.56 394.93C694.25 394.93 681.38 386.57 681.38 386.57L556.38 314.9L547.76 282.75C547.779 282.264 547.954 281.798 548.261 281.421C548.568 281.044 548.989 280.777 549.46 280.66L570.61 274.16C571.793 274.155 572.93 274.617 573.773 275.447C574.616 276.277 575.097 277.407 575.11 278.59L576.22 280.9C577.01 281.29 580.22 279.76 580.41 279.64V267C580.41 264.899 579.993 262.82 579.183 260.882C578.373 258.944 577.186 257.186 575.691 255.71C574.196 254.235 572.423 253.071 570.474 252.286C568.526 251.502 566.441 251.112 564.34 251.14H543.19C542.072 248.922 540.342 247.071 538.205 245.806C536.068 244.54 533.612 243.914 531.13 244H491ZM310.61 346.06C298.71 346.06 286.97 354.73 286.97 354.73L288.19 397.06C288.19 397.06 298.77 389.37 310.61 389.37C322.45 389.37 335.84 397.75 335.84 397.75L464.84 471.75L473.79 433.52L335.84 354.36C335.84 354.36 322.51 346.06 310.61 346.06ZM523 351L534.79 401.17L681.37 485.17C681.37 485.17 694.5 493.54 706.55 493.54C718.6 493.54 730.22 484.82 730.22 484.82L729 442.57C722.506 447.419 714.653 450.105 706.55 450.25C693.48 450.25 681.37 441.9 681.37 441.9L523 351ZM310.61 401.36C298.71 401.36 287 410 287 410L288.22 452.33C288.22 452.33 298.8 444.65 310.64 444.65C322.48 444.65 335.87 453.02 335.87 453.02L453.4 520.43L462.34 482.17L335.85 409.68C335.85 409.68 322.52 401.37 310.62 401.37L310.61 401.36ZM538 415L549.82 465.18L681.4 540.56C681.4 540.56 694.53 548.93 706.58 548.93C718.63 548.93 730.25 540.2 730.25 540.2L729 497.88C722.516 502.742 714.664 505.437 706.56 505.58C693.49 505.58 681.38 497.24 681.38 497.24L538 415ZM310.61 456.71C298.71 456.71 286.97 465.39 286.97 465.39L288.19 507.7C288.19 507.7 298.77 500 310.61 500C322.45 500 335.84 508.38 335.84 508.38L441.92 569.22L450.92 530.99L335.84 465C335.84 465 322.51 456.69 310.61 456.69V456.71ZM553.09 479L564.86 529.1L681.4 595.89C681.4 595.89 694.51 604.26 706.58 604.26C718.65 604.26 730.25 595.54 730.25 595.54L729 553.24C722.507 558.08 714.658 560.759 706.56 560.9C693.49 560.9 681.38 552.54 681.38 552.54L553.09 479ZM461.8 615.8C440.23 615.8 413.16 626.64 413.16 656.33C413.16 676.91 428.58 686.62 439.11 691.65C444.69 694.31 451.48 697.29 457.11 700.25C459.99 701.79 471.45 705.58 471.45 717.75C471.45 730.8 456.92 735.23 450.4 735.23C427.14 735.23 411.31 724.84 411.31 724.84L413.71 751C413.71 751 423.22 755.72 451.66 755.79C478.79 755.7 498.36 738.59 498.36 715.02C498.36 696.88 485.75 686.14 474.99 681.02C466.52 676.96 461.61 674.73 454.24 671.32C446.87 667.91 439.24 662.05 439.24 652.95C439.24 643.17 448.35 636.15 461.77 636.15C481.52 636.15 489.46 644.92 494.29 647.65V623.22C494.29 623.22 479.06 615.81 461.77 615.81L461.8 615.8ZM545.45 617.52L550 628.85L502.64 753H528.5L536.77 729.36H585.77L594 753H642.87L651.18 729.36H700.18L708.37 753H737L688.42 617.53H659.81L664.38 628.85L619.93 745.27L574.09 617.53L545.45 617.52ZM288.45 617.72V701.45C288.45 748.23 317.55 755.99 341.94 755.99C377.94 755.99 394.69 732.61 394.69 700.99V617.73H370.8V703.83C370.8 714.69 367.19 734.99 341.92 734.58C318.92 734.21 314.71 713.47 314.71 700.14V617.73L288.45 617.72ZM562.26 657.94L579.26 710.94H543.26L562.26 657.94ZM676.58 657.94L693.58 710.94H657.58L676.58 657.94Z" fill="white"/>
</g>
<defs>
<clipPath id="clip0_2_3819">
<rect width="1024" height="1024" fill="white"/>
</clipPath>
</defs>
</svg>

<svg width="1024" height="1024" fill="none" xmlns="http://www.w3.org/2000/svg"><g clip-path="url(#a)"><path d="M512 1024c282.77 0 512-229.23 512-512S794.77 0 512 0 0 229.23 0 512s229.23 512 512 512Z" fill="#54688C"/><path d="M491 244c-10.6 0-13.14 9.81-13.14 9.81L450 364.52l-114.16-65.46s-12.35-8.37-25.23-8.37-23.61 8.69-23.61 8.69l1.23 42.35s9.52-7.68 22.41-7.68 25.23 8.39 25.23 8.39l140.39 80.48L508 287.39l11.82 49.93 161.54 92.62s12.7 8.34 25.18 8.34 23.67-8.72 23.67-8.72L729 387.25s-10.13 7.68-22.44 7.68-25.18-8.36-25.18-8.36l-125-71.67-8.62-32.15a2.241 2.241 0 0 1 1.7-2.09l21.15-6.5a4.48 4.48 0 0 1 4.5 4.43l1.11 2.31c.79.39 4-1.14 4.19-1.26V267a15.863 15.863 0 0 0-16.07-15.86h-21.15a12.996 12.996 0 0 0-12.06-7.14H491ZM310.61 346.06c-11.9 0-23.64 8.67-23.64 8.67l1.22 42.33s10.58-7.69 22.42-7.69c11.84 0 25.23 8.38 25.23 8.38l129 74 8.95-38.23-137.95-79.16s-13.33-8.3-25.23-8.3ZM523 351l11.79 50.17 146.58 84s13.13 8.37 25.18 8.37c12.05 0 23.67-8.72 23.67-8.72L729 442.57a38.68 38.68 0 0 1-22.45 7.68c-13.07 0-25.18-8.35-25.18-8.35L523 351Zm-212.39 50.36c-11.9 0-23.61 8.64-23.61 8.64l1.22 42.33s10.58-7.68 22.42-7.68c11.84 0 25.23 8.37 25.23 8.37l117.53 67.41 8.94-38.26-126.49-72.49s-13.33-8.31-25.23-8.31l-.01-.01ZM538 415l11.82 50.18 131.58 75.38s13.13 8.37 25.18 8.37c12.05 0 23.67-8.73 23.67-8.73L729 497.88a38.539 38.539 0 0 1-22.44 7.7c-13.07 0-25.18-8.34-25.18-8.34L538 415Zm-227.39 41.71c-11.9 0-23.64 8.68-23.64 8.68l1.22 42.31s10.58-7.7 22.42-7.7c11.84 0 25.23 8.38 25.23 8.38l106.08 60.84 9-38.23L335.84 465s-13.33-8.31-25.23-8.31v.02ZM553.09 479l11.77 50.1 116.54 66.79s13.11 8.37 25.18 8.37 23.67-8.72 23.67-8.72l-1.25-42.3a38.673 38.673 0 0 1-22.44 7.66c-13.07 0-25.18-8.36-25.18-8.36L553.09 479ZM461.8 615.8c-21.57 0-48.64 10.84-48.64 40.53 0 20.58 15.42 30.29 25.95 35.32 5.58 2.66 12.37 5.64 18 8.6 2.88 1.54 14.34 5.33 14.34 17.5 0 13.05-14.53 17.48-21.05 17.48-23.26 0-39.09-10.39-39.09-10.39l2.4 26.16s9.51 4.72 37.95 4.79c27.13-.09 46.7-17.2 46.7-40.77 0-18.14-12.61-28.88-23.37-34-8.47-4.06-13.38-6.29-20.75-9.7-7.37-3.41-15-9.27-15-18.37 0-9.78 9.11-16.8 22.53-16.8 19.75 0 27.69 8.77 32.52 11.5v-24.43s-15.23-7.41-32.52-7.41l.03-.01Zm83.65 1.72 4.55 11.33L502.64 753h25.86l8.27-23.64h49L594 753h48.87l8.31-23.64h49l8.19 23.64H737l-48.58-135.47h-28.61l4.57 11.32-44.45 116.42-45.84-127.74-28.64-.01Zm-257 .2v83.73c0 46.78 29.1 54.54 53.49 54.54 36 0 52.75-23.38 52.75-55v-83.26H370.8v86.1c0 10.86-3.61 31.16-28.88 30.75-23-.37-27.21-21.11-27.21-34.44v-82.41l-26.26-.01Zm273.81 40.22 17 53h-36l19-53Zm114.32 0 17 53h-36l19-53Z" fill="#fff"/></g><defs><clipPath id="a"><path fill="#fff" d="M0 0h1024v1024H0z"/></clipPath></defs></svg>
